X: 1
T: Bonnie Isle o'Whalsay
R: reel
C: Shetland, from Silver Bow (Tom Anderson et al)
S: arr. T. Traub 8-22-2004 (reformatted by John Chambers 2015-12-10
M: 4/4
L: 1/8
K: Amix=g
|: "A"edcA "E"B2ed | "A"cAAc "E"BE-E2 |\
[1 "A"edcA "E"B2ed | "A"cA"E"B^G "A"A2-Ae- :|\
[2 "A"edcA "E"B2ed | "A"cA"E"B^G "A"A2-A2 |]
|: "A"cdeg "D"fded | "A"cAAc "G"BGGB |\
[1 "A"cdeg "D"fded | "E"cAB^G "A"A2 AB :|\
[2 "A"cdef gage | "G"dBGB "A"A2-A |]
